X:3007
T:Cheshire Rounds
R:Waltz
C:Trad.
O:England: Cheshire
M:3/4
L:1/8
Q:1/8=160
K:D
|:"Em"gf ed fa|"A"ge ed cA|"G"gf ed fa|"D" Ad dA FD:|
|:"G"GB FA E2|"A"Ee ed cA|"G"GB FA E2|"D"Dd dA FD:|

